X:1
T:Title
L:1/8
Q:1/4=90
M:9/8
K:G
V:1 treble nm="Church Organ, Staff"
V:1
 BcB A3 A2 d | ABA G3 d3 | dcB A3 A2 G | FAc e3 d3 | BcB A3 A2 d | ABA G3 d3 | ded c3 c2 E | %7
w: By~F.~T.~Southwick * * * * *|||||||
 FGE A3 A3 | GAB d3 d2 A | ABc d3 d2 d | cBA- A2 A- A/ z/ EF | GEA- A2 A- A3/2 z/ G | %12
w: |||||
 ABd- d2 d- d/ z/ AA | Bcd- d3/2 z/ d- d/ z/ dB | d c2- c c2 c B2 | A G2- G G2- G/ z/ z z |] %16
w: ||||

